icon-themes/breeze_svg/cmd/32/drawcaption.svg

<svg viewBox="0 0 32 32" xmlns="http://www.w3.org/2000/svg"><path d="m13 4v8h-5l-4 16h2.0605469l3.5-14h3.4394531v8h15v-18zm1 1h13v16h-13z" fill="#4d4d4d"/></svg>

<svg xmlns="http://www.w3.org/2000/svg" viewBox="0 0 32 32">
 <path 
     style="fill:#4d4d4d" 
     d="M 13 4 L 13 12 L 8 12 L 4 28 L 6.0605469 28 L 9.5605469 14 L 13 14 L 13 22 L 28 22 L 28 4 L 13 4 z M 14 5 L 27 5 L 27 21 L 14 21 L 14 5 z "
     />
</svg>
